public/Instagram.svg

<svg width="50" height="50" viewBox="0 0 50 50" fill="none" xmlns="http://www.w3.org/2000/svg">
<path fill-rule="evenodd" clip-rule="evenodd" d="M14.6932 0.15C17.3592 0.0272727 18.2092 0 25 0C31.7908 0 32.6408 0.0295455 35.3045 0.15C37.9682 0.270455 39.7863 0.695455 41.3773 1.31136C43.0432 1.94092 44.5545 2.925 45.8045 4.19773C47.0773 5.44545 48.0592 6.95455 48.6863 8.62273C49.3045 10.2136 49.7273 12.0318 49.85 14.6909C49.9727 17.3613 50 18.2113 50 25C50 31.7908 49.9705 32.6408 49.85 35.3068C49.7295 37.9658 49.3045 39.7842 48.6863 41.375C48.059 43.0433 47.0757 44.555 45.8045 45.8045C44.5545 47.0773 43.0432 48.0592 41.3773 48.6863C39.7863 49.3045 37.9682 49.7273 35.3092 49.85C32.6408 49.9727 31.7908 50 25 50C18.2092 50 17.3592 49.9705 14.6932 49.85C12.0341 49.7295 10.2159 49.3045 8.625 48.6863C6.95663 48.059 5.44505 47.0755 4.19545 45.8045C2.92358 44.556 1.93935 43.0452 1.31136 41.3773C0.695455 39.7863 0.272727 37.9682 0.15 35.3092C0.0272727 32.6387 0 31.7887 0 25C0 18.2092 0.0295455 17.3592 0.15 14.6955C0.270455 12.0318 0.695455 10.2136 1.31136 8.62273C1.94028 6.95473 2.92527 5.4439 4.19773 4.19545C5.44555 2.92387 6.95562 1.93965 8.62273 1.31136C10.2136 0.695455 12.0318 0.272727 14.6909 0.15H14.6932ZM35.1023 4.65C32.4658 4.52955 31.675 4.50455 25 4.50455C18.325 4.50455 17.5342 4.52955 14.8977 4.65C12.4591 4.76137 11.1364 5.16818 10.2545 5.51137C9.08863 5.96592 8.25455 6.50455 7.37955 7.37955C6.5501 8.18648 5.91177 9.16882 5.51137 10.2545C5.16818 11.1364 4.76137 12.4591 4.65 14.8977C4.52955 17.5342 4.50455 18.325 4.50455 25C4.50455 31.675 4.52955 32.4658 4.65 35.1023C4.76137 37.5408 5.16818 38.8637 5.51137 39.7455C5.91137 40.8295 6.55 41.8137 7.37955 42.6205C8.18637 43.45 9.17045 44.0887 10.2545 44.4887C11.1364 44.8318 12.4591 45.2387 14.8977 45.35C17.5342 45.4705 18.3227 45.4955 25 45.4955C31.6773 45.4955 32.4658 45.4705 35.1023 45.35C37.5408 45.2387 38.8637 44.8318 39.7455 44.4887C40.9113 44.0342 41.7455 43.4955 42.6205 42.6205C43.45 41.8137 44.0887 40.8295 44.4887 39.7455C44.8318 38.8637 45.2387 37.5408 45.35 35.1023C45.4705 32.4658 45.4955 31.675 45.4955 25C45.4955 18.325 45.4705 17.5342 45.35 14.8977C45.2387 12.4591 44.8318 11.1364 44.4887 10.2545C44.0342 9.08863 43.4955 8.25455 42.6205 7.37955C41.8135 6.55017 40.8312 5.91185 39.7455 5.51137C38.8637 5.16818 37.5408 4.76137 35.1023 4.65ZM21.8068 32.7068C23.5902 33.4492 25.5758 33.5493 27.4248 32.9903C29.2738 32.4312 30.8713 31.2475 31.9445 29.6415C33.0178 28.0353 33.5002 26.1065 33.3092 24.1843C33.1183 22.2622 32.266 20.4658 30.8977 19.1023C30.0255 18.2307 28.971 17.5632 27.8098 17.148C26.6488 16.7328 25.41 16.5804 24.183 16.7013C22.9558 16.8225 21.7708 17.214 20.7132 17.848C19.6555 18.482 18.7517 19.3427 18.0667 20.3678C17.3815 21.3932 16.9322 22.5575 16.7512 23.7772C16.5701 24.9968 16.6617 26.2415 17.0193 27.4217C17.3772 28.6017 17.992 29.6877 18.8198 30.6017C19.6477 31.5155 20.6678 32.2345 21.8068 32.7068V32.7068ZM15.9136 15.9136C17.1068 14.7204 18.5235 13.7739 20.0825 13.1281C21.6415 12.4823 23.3125 12.1499 25 12.1499C26.6875 12.1499 28.3585 12.4823 29.9175 13.1281C31.4765 13.7739 32.8932 14.7204 34.0863 15.9136C35.2797 17.1068 36.2262 18.5235 36.8718 20.0825C37.5177 21.6415 37.85 23.3125 37.85 25C37.85 26.6875 37.5177 28.3585 36.8718 29.9175C36.2262 31.4765 35.2797 32.8932 34.0863 34.0863C31.6765 36.4962 28.408 37.85 25 37.85C21.592 37.85 18.3235 36.4962 15.9136 34.0863C13.5038 31.6765 12.1499 28.408 12.1499 25C12.1499 21.592 13.5038 18.3235 15.9136 15.9136ZM40.7 14.0636C40.9957 13.7847 41.2323 13.4493 41.3962 13.0772C41.5598 12.7051 41.6473 12.304 41.6532 11.8976C41.6592 11.4911 41.5835 11.0876 41.4307 10.7109C41.2778 10.3342 41.051 9.99207 40.7635 9.70463C40.4762 9.4172 40.134 9.19035 39.7573 9.03753C39.3805 8.88472 38.977 8.80903 38.5707 8.81497C38.1642 8.82088 37.763 8.9083 37.391 9.07203C37.0188 9.23577 36.6835 9.47248 36.4045 9.76818C35.862 10.3432 35.565 11.1071 35.5767 11.8976C35.5882 12.688 35.9073 13.4429 36.4663 14.0019C37.0253 14.5609 37.7802 14.8801 38.5707 14.8916C39.3612 14.9031 40.125 14.6061 40.7 14.0636V14.0636Z" fill="#1096E1"/>
</svg>

<svg xmlns="http://www.w3.org/2000/svg" width="50" height="50" fill="none" xmlns:v="https://vecta.io/nano"><path fill-rule="evenodd" d="M14.693.15C17.359.027 18.209 0 25 0s7.641.03 10.304.15 4.482.545 6.073 1.161a12.3 12.3 0 0 1 4.427 2.886 12.21 12.21 0 0 1 2.882 4.425c.618 1.591 1.041 3.409 1.164 6.068.123 2.67.15 3.52.15 10.309l-.15 10.307c-.12 2.659-.546 4.477-1.164 6.068-.627 1.668-1.611 3.18-2.882 4.429-1.25 1.273-2.761 2.255-4.427 2.882-1.591.618-3.409 1.041-6.068 1.164-2.668.123-3.518.15-10.309.15s-7.641-.029-10.307-.15c-2.659-.12-4.477-.546-6.068-1.164-1.668-.627-3.18-1.611-4.43-2.882-1.272-1.248-2.256-2.759-2.884-4.427C.695 39.786.273 37.968.15 35.309.027 32.639 0 31.789 0 25l.15-10.304c.12-2.664.545-4.482 1.161-6.073.629-1.668 1.614-3.179 2.886-4.427C5.446 2.924 6.956 1.94 8.623 1.311 10.214.695 12.032.273 14.691.15h.002zm20.409 4.5c-2.636-.12-3.427-.145-10.102-.145s-7.466.025-10.102.145c-2.439.111-3.761.518-4.643.861A7.76 7.76 0 0 0 7.38 7.38c-.829.807-1.468 1.789-1.868 2.875-.343.882-.75 2.205-.861 4.643-.12 2.636-.145 3.427-.145 10.102l.145 10.102c.111 2.438.518 3.761.861 4.643a7.76 7.76 0 0 0 1.868 2.875 7.76 7.76 0 0 0 2.875 1.868c.882.343 2.205.75 4.643.861 2.636.12 3.425.145 10.102.145l10.102-.145c2.438-.111 3.761-.518 4.643-.861a7.76 7.76 0 0 0 2.875-1.868 7.76 7.76 0 0 0 1.868-2.875c.343-.882.75-2.205.861-4.643.12-2.636.145-3.427.145-10.102l-.145-10.102c-.111-2.439-.518-3.761-.861-4.643a7.76 7.76 0 0 0-1.868-2.875c-.807-.829-1.789-1.468-2.875-1.868-.882-.343-2.205-.75-4.643-.861zM21.807 32.707a8.34 8.34 0 0 0 10.138-3.065 8.34 8.34 0 0 0-1.047-10.539 8.34 8.34 0 0 0-6.715-2.401c-1.227.121-2.412.513-3.47 1.147a8.34 8.34 0 0 0-3.962 5.929c-.181 1.22-.09 2.464.268 3.645s.973 2.266 1.8 3.18 1.848 1.633 2.987 2.105h0zm-5.893-16.793A12.85 12.85 0 0 1 25 12.15a12.85 12.85 0 0 1 9.086 3.764c1.193 1.193 2.14 2.61 2.785 4.169a12.85 12.85 0 0 1 0 9.835c-.646 1.559-1.592 2.976-2.785 4.169a12.85 12.85 0 0 1-18.173 0 12.85 12.85 0 0 1 0-18.173zm24.786-1.85a3.04 3.04 0 0 0 .953-2.166 3.04 3.04 0 0 0-.89-2.193c-.287-.287-.63-.514-1.006-.667a3.04 3.04 0 0 0-2.366.034 3.04 3.04 0 0 0-1.814 2.826 3.04 3.04 0 0 0 2.994 2.994 3.04 3.04 0 0 0 2.129-.828h0z" fill="#1096e1"/></svg>
